!!!!SEGMENT: pl-sa--279-a-vii-39--002_rathgeber-johann-valentin--vesperae-laudate-pueri.krn
!!!cenid: 17xx:623
!!!COM: Rathgeber, Johann Valentin
!!!COM-rismid: pe30002639
!!!CDT: 1682/04/03-1750/06/02
!!!CNT: German
!!!OPR: Vesperae
!!!OTL: Laudate Pueri
!!!OMV: 002
!!!PDT: 1731
!!!AGN: Sacred; Vespers
!!!SMS-siglum: PL-SA
!!!SMS-shelfmark: 279/A VII 39
!!!SMS-shelfwork: 001-002 M
!!!SMS-variant:
!!!SMS-altvar:
!!!NIFC-rismid: 1001077278
!!!URL-scan: http://bc.bdsandomierz.pl/dlibra/publication/1762/edition/1730/content
!!!ONB-nifc: UWAGA: części Vesperae: Dixit Dominus, Laudate Pueri, Laetatus sum, Nisi Dominus, Lauda Jerusalem, Magnificat
!!!key:
**kern	**fba	**kern	**kern	**kern	**text	**kern	**text	**kern	**text	**kern	**text
*part7	*	*part6	*part5	*part4	*part4	*part3	*part3	*part2	*part2	*part1	*part1
*staff7	*	*staff6	*staff5	*staff4	*staff4	*staff3	*staff3	*staff2	*staff2	*staff1	*staff1
*Iorgan	*	*Ivioln	*Ivioln	*Iempty	*	*Itenor	*	*Ialto	*	*Ivox	*
*I"[Organo]	*	*I"Violino Uniſono	*I"Violino Uniſono	*I"Baſso	*	*I"Tenero	*	*I"Alto	*	*I"Canto	*
*I'org	*	*I'vn 2	*I'vn 1	*I'B	*	*I'T	*	*I'A	*	*I'C	*
*clefF4	*	*clefG2	*clefG2	*clefF4	*	*clefC4	*	*clefC3	*	*clefC1	*
*k[]	*	*k[]	*k[]	*k[]	*	*k[]	*	*k[]	*	*k[]	*
*C:	*	*C:	*C:	*C:	*	*C:	*	*C:	*	*C:	*
*M2/4	*	*M2/4	*M2/4	*M2/4	*	*M2/4	*	*M2/4	*	*M2/4	*
=1	=1	=1	=1	=1	=1	=1	=1	=1	=1	=1	=1
!LO:TX:b:t=Laudate pueri	!	!LO:TX:a:t=P:problem=strony 43-44 skanu	!LO:TX:a:t=P:problem=strony 35-36 skanu	!	!	!	!	!	!	!	!
!LO:TX:a:t=Tutti	!	!LO:TX:b:t=[L]audate Pueri:problem="L" przed kluczem	!LO:TX:b:t=[L]audate Pueri:problem="L" przed kluczem	!	!	!	!	!	!	!	!
!LO:TX:a:t=P:problem=w źródle brak nazwy głosu	!	!	!	!	!	!	!	!	!	!	!
8rc	.	8rdd	8rdd	8rA	.	8rc	.	8rf	.	8r	.
!	!	!	!	!	!	!	!	!LO:TX:a:t=P:problem="L"przed kluczem	!	!LO:TX:a:t=P:problem="L" przed kluczem	!
8c\L	.	16ee\LL	16ee\LL	8c\	Lau-	8c\	Lau-	8g\	[L]au-	8ee\	[L]au-
.	.	16ff\JJ	16ff\JJ	.	.	.	.	.	.	.	.
8G\	.	16gg\LL	16gg\LL	8G\	-da-	8B\	-da-	8g\	-da-	8dd\	-da-
.	.	16gg\	16gg\	.	.	.	.	.	.	.	.
8E\J	6	16gg\	16gg\	8E\	-te	8c\	-te	8g\	-te	8cc\	-te
.	.	16gg\JJ	16gg\JJ	.	.	.	.	.	.	.	.
=2	=2	=2	=2	=2	=2	=2	=2	=2	=2	=2	=2
8F\L	.	16cc\LL	16cc\LL	8F\	pu-	8c\	pu-	8a\	pu-	8cc\	Pu-
.	.	16cc\	16cc\	.	.	.	.	.	.	.	.
8E\	.	16cc\	16cc\	16E\	-e-	16c\	-e-	16g\	-e-	16cc\	-e-
.	.	16cc\JJ	16cc\JJ	16E\	-ri	16c,<\	-ri	16g\	-ri	16cc\	-ri
8D\	6	16ff\LL	16ff\LL	8D/	Do-	8B\	Do-	8d\	Do-	8ff\	Do-
.	.	16ff\	16ff\	.	.	.	.	.	.	.	.
8C\J	.	16ee\	16ee\	8C/	-mi-	8c\	-mi-	8g\	-mi-	8ee\	-mi-
.	.	16ee\JJ	16ee\JJ	.	.	.	.	.	.	.	.
=3	=3	=3	=3	=3	=3	=3	=3	=3	=3	=3	=3
!	!	!	!LO:TX:a:t=P:problem=mixed beam	!	!	!	!	!	!	!	!
8G\L	.	16dd\LL	16dd\LL	4G\	-num	4B\	-num	8g\	-num	4dd\	-nu(m)
.	.	16g\	16g/	.	.	.	.	.	.	.	.
8G\J	.	16g\	16g/	.	.	.	.	8rb	.	.	.
.	.	16g\JJ	16g/JJ	.	.	.	.	.	.	.	.
!	!	!LO:TX:a:t=P:problem=mixed beam	!LO:TX:a:t=P:problem=mixed beam	!	!	!	!	!	!	!	!
8rc	.	8g/L	8g/L	8rF	.	4r	.	4re	.	4rdd	.
8c\	.	16ee\L	16ee\L	8c\	lau-	.	.	.	.	.	.
.	.	16ff\JJ	16ff\JJ	.	.	.	.	.	.	.	.
=4	=4	=4	=4	=4	=4	=4	=4	=4	=4	=4	=4
8G\L	.	16gg\LL	16gg\LL	8G\	-da-	8rc	.	8rg	.	8rcc	.
.	.	16gg\	16gg\	.	.	.	.	.	.	.	.
!	!	!	!	!LO:TX:a:t=problem&colon; oddech jako rozdzielacz słów&colon;global	!	!	!	!	!	!	!
8C\	6	16gg\	16gg\	16E,<\	-te	8c\	Lau-	8g\	Lau-	8cc\	Lau-
.	.	16gg\JJ	16gg\JJ	16E\	lau-	.	.	.	.	.	.
8F\	.	16cc\LL	16cc\LL	8F\	-da-	8c\	-da-	8a\	-da-	8cc\	-da-
.	.	16cc\	16cc\	.	.	.	.	.	.	.	.
!	!	!	!	!	!	!	!	!	!	!LO:LB:g=original	!
8E\J	6	16cc\	16cc\	8E\	-te	8c\	-te	8g\	-te	8cc\	-te
.	.	16cc\JJ	16cc\JJ	.	.	.	.	.	.	.	.
=5	=5	=5	=5	=5	=5	=5	=5	=5	=5	=5	=5
8D/L	6	16ff\LL	16ff\LL	8D/	no-	8B\	No-	8d\	No-	8ff\	No-
.	.	16gg\	16gg\	.	.	.	.	.	.	.	.
8C/J	.	16ee\	16ee\	8C/	-men	8c\	-men	8g\	-men	8ee\	-men
.	.	16ff\JJ	16ff\JJ	.	.	.	.	.	.	.	.
!LO:TX:a:t=P:problem=mixed beam	!	!	!	!	!	!	!	!	!	!	!
8G\L	.	16dd\LL	16dd\LL	8G\	Do-	8B\	Do-	8g\	Do-	8dd\	Do-
.	.	16gg\	16gg\	.	.	.	.	.	.	.	.
!	!	!	!	!	!	!	!	!LO:LB:g=original	!	!	!
8GG/J	.	16gg\	16gg\	8GG/	-mi-	8B\	-mi-	8g\	-mi-	8dd\	-mi-
.	.	16gg\JJ	16gg\JJ	.	.	.	.	.	.	.	.
=6	=6	=6	=6	=6	=6	=6	=6	=6	=6	=6	=6
4C/	.	16ee\LL	16ee\LL	4C/	-ni	4c\	-ni	8g,<\	-ni	4cc\	-ni
.	.	16ee\	16ee\	.	.	.	.	.	.	.	.
.	.	16ee\	16ee\	.	.	.	.	8g\	ſit	.	.
.	.	16ee\JJ	16ee\JJ	.	.	.	.	.	.	.	.
!	!	!LO:LB:g=original	!	!	!	!	!	!	!	!	!
8rBB	.	16dd\LL	16dd\LL	4r	.	4rc	.	8g\	No-	4rb	.
.	.	16gg\	16gg\	.	.	.	.	.	.	.	.
8BB/	6	16gg\	16gg\	.	.	.	.	8g\	-men	.	.
.	.	16gg\JJ	16gg\JJ	.	.	.	.	.	.	.	.
!	!	!	!LO:LB:g=original	!LO:LB:g=original	!	!	!	!	!	!	!
=7	=7	=7	=7	=7	=7	=7	=7	=7	=7	=7	=7
!	!	!	!	!LO:N:vis=00	!	!	!	!	!	!	!
4AA/	.	16cc\LL	16cc\LL	0r	.	2r	.	8e\	Do-	4rdd	.
.	.	16ee\	16ee\	.	.	.	.	.	.	.	.
.	.	16ee\	16ee\	.	.	.	.	16e\	-mi-	.	.
.	.	16ee\JJ	16ee\JJ	.	.	.	.	16e,<\	-ni	.	.
8rBB	.	16b\LL	16b\LL	.	.	.	.	8e\	be-	8rb	.
.	.	16ee\	16ee\	.	.	.	.	.	.	.	.
8GG/	6	16ee\	16ee\	.	.	.	.	8e\	-ne-	8ee\	Ex-
.	.	16ee\JJ	16ee\JJ	.	.	.	.	.	.	.	.
=8	=8	=8	=8	=8	=8	=8	=8	=8	=8	=8	=8
!	!	!LO:TX:a:t=P:problem=mixed beam	!LO:TX:a:t=P:problem=mixed beam	!	!	!	!	!	!	!	!
4FF/	.	16a/LL	16a/LL	.	.	8rc	.	8c/	-di-	8a\	-cel-
.	.	16aa\	16aa\	.	.	.	.	.	.	.	.
.	.	16aa\	16aa\	.	.	8c\	A	8c/	-ctu(m)	8a\	-ſus
!	!	!LO:TX:a:t=sic&colon;s=16gg	!	!	!	!	!	!	!	!	!
.	.	16aa\JJ	16gg\JJ	.	.	.	.	.	.	.	.
!	!	!	!	!	!	!LO:LB:g=original	!	!	!	!	!
8r	.	16ff\LL	16ff\LL	.	.	8c\	So-	8a\	ex	8a\	ſu-
.	.	16ee\	16ee\	.	.	.	.	.	.	.	.
8F\	.	16dd\	16dd\	.	.	8c\	-lis	8a\	hoc	8a\	-per
.	.	16cc\JJ	16cc\JJ	.	.	.	.	.	.	.	.
=9	=9	=9	=9	=9	=9	=9	=9	=9	=9	=9	=9
8G\	.	16b\LL	16b\LL	.	.	8B\	Or-	8d\	nunc	8dd\	om-
.	.	16dd\	16dd\	.	.	.	.	.	.	.	.
8rF	.	16b\	16b\	.	.	8B\	-tu	8d\	et	8dd,<\	-nes
.	.	16dd\JJ	16dd\JJ	.	.	.	.	.	.	.	.
8G\	.	16g\LL	16g\LL	.	.	8B\	uſ-	8d\	uſ-	8dd\	gen-
.	.	16dd\	16dd\	.	.	.	.	.	.	.	.
8rF	.	16b\	16b\	.	.	8B\	-q(ue)	16d\	-q(ue)	8dd\	-tes
.	.	16dd\JJ	16dd\JJ	.	.	.	.	16d\	in	.	.
!LO:LB:g=original	!	!	!	!	!	!	!	!	!	!	!
=10	=10	=10	=10	=10	=10	=10	=10	=10	=10	=10	=10
8G\	.	16g\LL	16g\LL	.	.	8B\	ad	8B/	ſae-	8dd\	Do-
.	.	16dd\	16dd\	.	.	.	.	.	.	.	.
8rG	.	16b\	16b\	.	.	8B\	Oc-	16G/	-cu-	8dd\	-mi-
.	.	16dd\JJ	16dd\JJ	.	.	.	.	16G/	-lum	.	.
8G\	.	16g\LL	16g\LL	.	.	8B\	-ca-	4r	.	8dd\	-n(us)
.	.	16dd\	16dd\	.	.	.	.	.	.	.	.
8rG	.	16b\	16b\	.	.	8B\	-ſum	.	.	8g\	et
.	.	16dd\JJ	16dd\JJ	.	.	.	.	.	.	.	.
=11	=11	=11	=11	=11	=11	=11	=11	=11	=11	=11	=11
!	!	!	!	!LO:N:vis=0	!	!	!	!LO:N:vis=0	!	!	!
16G\LL	.	4g/	4g/	1r	.	8rc	.	1r	.	8g/	ſu-
16c\	.	.	.	.	.	.	.	.	.	.	.
16c\	.	.	.	.	.	8c\	lau-	.	.	8g/	-per
16c\JJ	.	.	.	.	.	.	.	.	.	.	.
16A\LL	.	16rff	16rcc	.	.	8c\	-da-	.	.	8cc\	Coe-
16E\	.	16gg\LL	16gg\LL	.	.	.	.	.	.	.	.
16E\	.	16gg\	16gg\	.	.	16e\	-bi-	.	.	8cc\	-los
16E\JJ	.	16gg\JJ	16gg\JJ	.	.	16e\	-le	.	.	.	.
!	!	!	!	!	!	!	!	!	!	!LO:LB:g=original	!
=12	=12	=12	=12	=12	=12	=12	=12	=12	=12	=12	=12
16F\LL	6 5	8cc\L	8cc\L	.	.	8d\	No-	.	.	8cc\	glo-
16E\	.	.	.	.	.	.	.	.	.	.	.
16F\	.	8dd\J	8dd\J	.	.	8d\	-men	.	.	16cc\	-ri-
16D\JJ	.	.	.	.	.	.	.	.	.	16cc,<\	-a
!LO:TX:a:t=P:problem=mixed beam	!	!	!	!	!	!	!	!	!	!	!
8G\L	.	16b\LL	16b\LL	.	.	8d\	Do-	.	.	4b\	e-
.	.	16dd\	16dd\	.	.	.	.	.	.	.	.
8GG/J	.	16g\	16g\	.	.	8d\	-mi-	.	.	.	.
.	.	16b\JJ	16b\JJ	.	.	.	.	.	.	.	.
!	!	!LO:LB:g=original	!	!	!	!	!	!	!	!	!
=13	=13	=13	=13	=13	=13	=13	=13	=13	=13	=13	=13
8C/L	.	8cc\	8cc\	8r	.	8e\	-ni	2r	.	8cc\	-jus
!	!	!	!	!LO:SIC:l:s=Quis:v	!	!	!	!	!	!	!
16C/L	.	8ree	8rcc	8C/	Qui	8re	.	.	.	8rdd	.
16C/JJ	.	.	.	.	.	.	.	.	.	.	.
8C/L	.	4r	4r	8C/	ſi-	4rc	.	.	.	4rb	.
8C/J	.	.	.	8C/	-cut	.	.	.	.	.	.
!	!	!	!	!	!	!	!	!LO:LB:g=original	!	!	!
=14	=14	=14	=14	=14	=14	=14	=14	=14	=14	=14	=14
8G\L	.	8b/L	8b/L	8G\	Do-	8re	.	8re	.	8rb	.
!	!	!	!	!	!	!LO:SIC:l:s=Quis:v	!	!	!	!	!
16G\L	.	16b/L	16b/L	16G\	-mi-	8d\	Qui	8g\	quis	8b\	quis
16G\JJ	.	16b/JJ	16b/JJ	16G\	-n(us)	.	.	.	.	.	.
!	!	!	!LO:LB:g=original	!	!	!	!	!	!	!	!
8G\L	.	8b/L	8b/L	8G\	De-	8d\	ſi-	8g\	ſi-	8b\	ſi-
8G\J	.	8b/J	8b/J	8G\	-us	8d\	-cut	8g\	-cut	8b,<\	-cut
!	!	!	!	!	!	!LO:LB:g=original	!	!	!	!	!
=15	=15	=15	=15	=15	=15	=15	=15	=15	=15	=15	=15
8D/L	-n	8dd\L	8dd\L	8D/	noſ-	8d\	Do-	8f\	Do-	8a\	Do-
16D/L	.	16dd\L	16dd\L	8D,</	-ter	16d\	-mi-	16f\	-mi-	16a\	-mi-
16D/JJ	.	16dd\JJ	16dd\JJ	.	.	16d\	-n(us)	16f\	-n(us)	16a,<\	-n(us)
8D/L	.	8dd\L	8dd\L	8D/	qui	8d\	De-	8f\	De-	8a\	De-
8D/J	.	8dd\J	8dd\J	8D/	in	8d\	-us	8f\	-us	8a\	-us
=16	=16	=16	=16	=16	=16	=16	=16	=16	=16	=16	=16
!	!	!	!	!	!	!LO:TX:a:t=cla	!	!	!	!	!
8A\L	.	16cc\LL	16cc\LL	8A\	al-	8c\	noſ-	8e\	Noſ-	8cc\	Noſ-
.	.	16dd\	16dd\	.	.	.	.	.	.	.	.
8A\	.	16ee\	16ee\	8A,<\	-tis	8e,<\	-ter	8a\	-ter	8cc,<\	-ter
.	.	16ff\JJ	16ff\JJ	.	.	.	.	.	.	.	.
8E\	6	16gg\LL	16gg\LL	8E\	qui	8e\	qui	8g\	qui	8cc\	qui
.	.	16aa\	16aa\	.	.	.	.	.	.	.	.
8F\J	6 5	16ff\	16ff\	8F\	in	8d\	in	8a\	in	8cc\	in
.	.	16ee\JJ	16ee\JJ	.	.	.	.	.	.	.	.
=17	=17	=17	=17	=17	=17	=17	=17	=17	=17	=17	=17
8G\L	.	16dd\LL	16dd\LL	8G\	al-	8d\	al-	8g\	al-	8b\	al-
.	.	16gg\	16gg\	.	.	.	.	.	.	.	.
8E\J	.	16ee\	16ee\	8c,<\	-tis	16e\LL	-tis	8g\	-tis	(16cc\LL	-tis
.	.	16gg\JJ	16gg\JJ	.	.	16f,<\JJ	.	.	.	16dd,<\JJ)	.
!LO:LB:g=original	!	!	!	!	!	!	!	!	!	!	!
!LO:TX:a:t=P:problem=mixed beam	!	!	!	!	!	!	!	!	!	!	!
8G\L	.	16dd\LL	16dd\LL	8G\	ha-	8.d\	ha-	8g\	ha-	8.b\	ha-
.	.	16gg\	16gg\	.	.	.	.	.	.	.	.
8GG/J	.	16ff\	16ff\	8G\	-bi-	.	.	8g\	-bi-	.	.
.	.	16gg\JJ	16gg\JJ	.	.	16d\	-bi-	.	.	16b\	-bi-
=18	=18	=18	=18	=18	=18	=18	=18	=18	=18	=18	=18
!LO:TX:a:t=P:problem=mixed beam	!	!	!	!	!	!	!	!	!	!	!
8C/L	.	8ee\	8ee\	8C/	-tat	8c,<\	-tat	8g,<\	-tat	8cc,<\	-tat
!	!	!	!	!LO:LB:g=original	!	!	!	!	!	!	!
8c\	.	8rff	8rff	16c\	et	16c\	et	16g\	et	16ee\	et
.	.	.	.	16c\	hu-	16c\	hu-	16g\	hu-	16ee\	hu-
!	!	!	!	!	!	!	!	!	!	!LO:LB:g=original	!
8B\	#6\	8rcc	8rcc	8B\	-mi-	8d\	-mi-	8g#X\	-mi-	8dd\	-mi-
8A\J	.	8ee\	8ee\	16A\	-li-	16e\	-li-	16a\	-li-	16cc\	-li-
.	.	.	.	16A\	-a	16e,<\	-a	16a\	-a	16cc\	-a
=19	=19	=19	=19	=19	=19	=19	=19	=19	=19	=19	=19
!	!	!LO:TX:a:t=P:problem=mixed beam	!LO:TX:a:t=P:problem=mixed beam	!	!	!	!	!	!	!	!
8G#X\	.	8ee\L	8ee\L	8G#X\	reſ-	8e\	reſ-	8e\	reſ-	8b\	reſ-
8E\	.	8e/J	8e/J	8E\	-pi-	8e\	-pi-	8f#X\	-pi-	8b\	-pi-
!	!	!	!LO:TX:a:t=P:problem=mixed beam	!	!	!	!	!LO:SIC:s=8g#\:v	!	!	!
8E\L	.	8ee\L	8ee\L	8E\	-cit	8e\	-cit	8g\	-cit	8b\	-cit
8E\J	.	8a\J	8a/J	8E\	in	8c\	in	8a\	in	8cc\	in
!	!	!	!	!	!	!LO:LB:g=original	!	!LO:LB:g=original	!	!	!
=20	=20	=20	=20	=20	=20	=20	=20	=20	=20	=20	=20
!LO:TX:a:t=P:problem=mixed beam	!	!LO:TX:a:t=P:problem=mixed beam	!LO:TX:a:t=P:problem=mixed beam	!	!	!	!	!	!	!	!
8E\L	.	8ee\L	8ee\L	8E\	Coe-	8e\	Coe-	8g#X\	Coe-	8b\	Coe-
8AA/J	.	8e/J	8e/J	8AA/	-lo	8e\	-lo	8a\	-lo	16cc\	-lo
.	.	.	.	.	.	.	.	.	.	16cc\	in
!	!	!	!LO:TX:a:t=P:problem=mixed beam	!	!	!	!	!	!	!	!
4r	.	8ee\L	8ee\L	4r	.	4r	.	4re	.	8ee\	Coe-
.	.	8a\J	8a/J	.	.	.	.	.	.	8a\	-lo
=21	=21	=21	=21	=21	=21	=21	=21	=21	=21	=21	=21
!LO:TX:a:t=P:problem=mixed beam	!	!	!	!	!	!	!	!	!	!	!
8E\L	#	16ee\LL	16ee\LL	8E\	et	8e\	et	8g#X\	et	8b\	et
.	.	16dd\	16dd\	.	.	.	.	.	.	.	.
8A\	4	16cc\	16cc\	8A\	in	8e\	in	8a\	in	8cc\	in
.	.	16dd\JJ	16dd\JJ	.	.	.	.	.	.	.	.
!	!	!LO:LB:g=original	!	!	!	!	!	!	!	!	!
8E\	.	8.b/L	8.b/L	4E\	ter-	4e\	ter-	4g#\	ter-	4b\	ter-
8EE/J	#	.	.	.	.	.	.	.	.	.	.
.	.	16a/Jk	16a/Jk	.	.	.	.	.	.	.	.
=22	=22	=22	=22	=22	=22	=22	=22	=22	=22	=22	=22
4AA/	.	4a/	4a/	4AA,</	-ra	4e,<\	-ra	4a,<\	-ra	4a,<\	-ra
4F\	.	16aa\LL	16aa\LL	16F\	ſus-	16A/	ſus-	16a\	ſus-	16cc\	ſus-
.	.	16cc\	16cc\	16F\	-ci-	16A/	-ci-	16a\	-ci-	16cc\	-ci-
.	.	16cc\	16cc\	16F\	-tans	16A/	-tans	16a\	-tans	16cc,<\	-tans
.	.	16cc\JJ	16cc\JJ	16F\	a	16A/	a	16a\	a	16cc\	a
!	!	!	!LO:LB:g=original	!	!	!	!	!	!	!	!
=23	=23	=23	=23	=23	=23	=23	=23	=23	=23	=23	=23
8E\L	6	16gg\LL	16gg\LL	8E\	ter-	8c\	ter-	8g\	ter-	8cc\	ter-
!	!	!	!	!LO:LB:g=original	!	!	!	!	!	!	!
.	.	16cc\	16cc\	.	.	.	.	.	.	.	.
8F\	.	16cc\	16cc\	8F,<\	-ra	8c,<\	-ra	8a,<\	-ra	8cc,<\	-ra
.	.	16cc\JJ	16cc\JJ	.	.	.	.	.	.	.	.
8E\	6	16ff\LL	16ff\LL	8D/	in-	8B\	in-	8f\	in-	8dd\	in-
.	.	16dd\	16dd\	.	.	.	.	.	.	.	.
8D\J	.	16ee\	16ee\	8C/	-o-	8c\	-o-	8e\	-o-	8ee\	-o-
.	.	16cc\JJ	16cc\JJ	.	.	.	.	.	.	.	.
!	!	!	!	!	!	!	!	!	!	!LO:LB:g=original	!
=24	=24	=24	=24	=24	=24	=24	=24	=24	=24	=24	=24
!	!	!	!LO:TX:a:t=P:problem=mixed beam	!	!	!	!	!	!	!	!
8G\L	.	16dd\LL	16dd\LL	8G,<\	-pem	8B,<\	-pem	8g,<\	-pem	8dd,<\	-pem
.	.	16g\	16g/	.	.	.	.	.	.	.	.
!	!	!	!	!	!	!LO:SIC:l:s=et:v	!	!	!	!	!
8G\	.	16g\	16g/	16G\	et	16B\	e	16g\	et	16dd\	et
.	.	16g\JJ	16g/JJ	16G\	de	16B\	de	16g\	de	16dd\	de
8E\	6	8cc\L	8cc\L	8E\	ſter-	8e\	ſter-	8g\	ſter-	8cc\	ſter-
8A\J	.	8cc\J	8cc\J	16A\	-co-	16e\	-co-	16a\	-co-	16cc\	-co-
.	.	.	.	16A,<\	-re	16e\	-re	16a\	-re	16cc,<\	-re
=25	=25	=25	=25	=25	=25	=25	=25	=25	=25	=25	=25
8F#X\L	6 5	16cc\LL	16cc\LL	8F#X\	e-	8d\	e-	8a\	e-	8cc\	e-
.	.	16dd\	16dd\	.	.	.	.	.	.	.	.
8G\J	.	16b\	16b\	16G\	-ri-	16d\	-ri-	16g\	-ri-	16b\	-ri-
!	!	!	!	!	!	!	!	!LO:SIC:l:s=-gens:v	!	!LO:SIC:l:s=-gens:v	!
.	.	16cc\JJ	16cc\JJ	16G\	-gens	16d\	-gens	16a\	-ens	16cc\	-ens
!	!	!	!	!	!	!LO:LB:g=original	!	!	!	!	!
!LO:TX:a:t=P:problem=mixed beam	!	!	!	!	!	!	!	!	!	!	!
8D\L	#	16a\LL	16a\LL	8D/	pau-	8d\	pau-	8.f#X\	pau-	8.a\	pau-
.	.	16dd\	16dd\	.	.	.	.	.	.	.	.
8DD/J	.	16cc\	16cc\	8D/	-pe-	8c\	-pe-	.	.	.	.
.	.	16dd\JJ	16dd\JJ	.	.	.	.	16f#\	-pe-	16a\	-pe-
!	!	!	!	!	!	!	!	!LO:LB:g=original	!	!	!
=26	=26	=26	=26	=26	=26	=26	=26	=26	=26	=26	=26
4GG/	.	8b/L	8b/L	8GG/	-rem	8d\	-rem	8g\	-rem	8g,</	-rem
.	.	8g/J	8g/J	4rBB	.	8re	.	8rg	.	8b\	Ut
8rG	.	16gg\LL	16gg\LL	.	.	4rc	.	4re	.	8b\	Col-
.	.	16bb\	16bb\	.	.	.	.	.	.	.	.
8G\	.	16bb\	16bb\	8r	.	.	.	.	.	16a\	-lo-
.	.	16bb\JJ	16bb\JJ	.	.	.	.	.	.	16g/	-cet
!LO:LB:g=original	!	!	!	!	!	!	!	!	!	!	!
=27	=27	=27	=27	=27	=27	=27	=27	=27	=27	=27	=27
!	!	!	!	!LO:N:vis=00	!	!	!	!	!	!	!
4F#X\	6	16aa\LL	16aa\LL	0r	.	2r	.	2r	.	8a\	e-
.	.	16dd\	16dd\	.	.	.	.	.	.	.	.
.	.	16dd\	16dd\	.	.	.	.	.	.	8a\	-um
.	.	16dd\JJ	16dd\JJ	.	.	.	.	.	.	.	.
8rF	.	16dd\LL	16dd\LL	.	.	.	.	.	.	8g/	Cum
.	.	16gg\	16gg\	.	.	.	.	.	.	.	.
8E\	.	16gg\	16gg\	.	.	.	.	.	.	8g/	prin-
.	.	16gg\JJ	16gg\JJ	.	.	.	.	.	.	.	.
=28	=28	=28	=28	=28	=28	=28	=28	=28	=28	=28	=28
4D/	#	16ff#X\LL	16ff#X\LL	.	.	4rc	.	8re	.	8f#X/	-ci-
.	.	16dd\	16dd\	.	.	.	.	.	.	.	.
.	.	16dd\	16dd\	.	.	.	.	8f#X\	Qui	16d/	-pi-
.	.	16dd\JJ	16dd\JJ	.	.	.	.	.	.	16d/	-bus
!	!	!LO:PB:g=original	!	!	!	!	!	!	!	!	!
8r	.	16dd\LL	16dd\LL	.	.	8d\	Cum	8d\	ha-	4re	.
.	.	16dd\	16dd\	.	.	.	.	.	.	.	.
8C/	.	16ee\	16ee\	.	.	8e\	prin-	8g\	-bi-	.	.
!	!	!LO:TX:a:t=P:problem=♯ above	!	!	!	!	!	!	!	!	!
.	.	16ff#X\JJ	16ff#X\JJ	.	.	.	.	.	.	.	.
!	!	!	!	!	!	!	!	!	!	!LO:LB:g=original	!
=29	=29	=29	=29	=29	=29	=29	=29	=29	=29	=29	=29
!	!	!LO:TX:a:t=P:problem=mixed beam	!LO:TX:a:t=P:problem=mixed beam	!	!	!	!	!	!	!	!
!	!	!	!	!	!	!	!	!	!	!LO:N:vis=00	!
8BB/L	6	16gg\LL	16gg\LL	.	.	8d\	-ci-	8g\	-ta-	0r	.
.	.	16g/	16g/	.	.	.	.	.	.	.	.
8GG/J	.	16g/	16g/	.	.	16d\	-pi-	8g\	-re	.	.
.	.	16g/JJ	16g/JJ	.	.	16d\	-bus	.	.	.	.
!	!	!	!LO:PB:g=original	!	!	!	!	!	!	!	!
!	!	!LO:TX:a:t=P:problem=mixed beam	!LO:TX:a:t=P:problem=mixed beam	!	!	!	!	!	!	!	!
8rF	.	16g/LL	16g/LL	.	.	8d\	po-	8g\	fa-	.	.
.	.	16gg\	16gg\	.	.	.	.	.	.	.	.
8G\	.	16gg\	16gg\	.	.	16d\	-pu-	8g\	-cit	.	.
.	.	16gg\JJ	16gg\JJ	.	.	16d\	-li	.	.	.	.
=30	=30	=30	=30	=30	=30	=30	=30	=30	=30	=30	=30
*	*	*	*	*	*	*2\right	*	*	*	*	*
!LO:TX:a:t=P:problem=mixed beam	!	!	!	!	!	!	!	!	!	!	!
8D\L	6 4	16gg\LL	16gg\LL	.	.	2d\	ſu-	8g\	ſte-	.	.
.	.	16bb\	16bb\	.	.	.	.	.	.	.	.
8C\	.	16aa\	16aa\	.	.	.	.	8g\	-ri-	.	.
.	.	16gg\JJ	16gg\JJ	.	.	.	.	.	.	.	.
8D\	5 #	16ff#X\LL	16ff#X\LL	.	.	.	.	8f#X,<\	-lem	.	.
.	.	16aa\	16aa\	.	.	.	.	.	.	.	.
8DD/J	.	16dd\	16dd\	.	.	.	.	8f#\	in	.	.
.	.	16ff#\JJ	16ff#X\JJ	.	.	.	.	.	.	.	.
=31	=31	=31	=31	=31	=31	=31	=31	=31	=31	=31	=31
!LO:TX:a:t=P:problem=mixed beam	!	!	!	!	!	!	!	!	!	!	!
8GG/L	.	16gg\LL	16gg\LL	8G\	Ma-	8B\	-i	8g\	Do-	.	.
.	.	16gg\	16gg\	.	.	.	.	.	.	.	.
8G\J	.	16gg\	16gg\	8G\	-tre(m)	8rc	.	8g\	-mo	.	.
.	.	16gg\JJ	16gg\JJ	.	.	.	.	.	.	.	.
8E\L	.	16gg\LL	16gg\LL	8E\	fi-	4r	.	4re	.	.	.
.	.	16cc\	16cc\	.	.	.	.	.	.	.	.
8A\J	6	16cc\	16cc\	8A\	-li-	.	.	.	.	.	.
.	.	16cc\JJ	16cc\JJ	.	.	.	.	.	.	.	.
!	!	!	!	!LO:LB:g=original	!	!	!	!	!	!	!
=32	=32	=32	=32	=32	=32	=32	=32	=32	=32	=32	=32
8F\L	.	16cc\LL	16cc\LL	8F\	-o-	2rA	.	2r	.	.	.
.	.	16b\	16b\	.	.	.	.	.	.	.	.
8C\J	.	16cc\	16cc\	16C/	-rum	.	.	.	.	.	.
.	.	16dd\JJ	16dd\JJ	16C/	lae-	.	.	.	.	.	.
!LO:TX:a:t=P:problem=mixed beam	!	!	!	!	!	!	!	!	!	!	!
8G\L	.	16b\LL	16b\LL	8G\	-tan-	.	.	.	.	.	.
.	.	16dd\	16dd\	.	.	.	.	.	.	.	.
8GG/J	.	16g\	16g\	8GG,</	-tem	.	.	.	.	.	.
.	.	16b\JJ	16b\JJ	.	.	.	.	.	.	.	.
=33	=33	=33	=33	=33	=33	=33	=33	=33	=33	=33	=33
!LO:TX:a:t=P:problem=mixed beam	!	!	!	!	!	!	!	!	!	!	!
8C/L	.	16cc\LL	16cc\LL	8C/	Glo-	8c\	Glo-	8g\	Glo-	8ee\	Glo-
.	.	16dd\	16dd\	.	.	.	.	.	.	.	.
8c\	.	16ee\	16ee\	16c\	-ri-	16c\	-ri-	16g\	-ri-	16ee\	-ri-
.	.	16ff\JJ	16ff\JJ	16c\	-a	16c\	-a	16g\	-a	16ee,<\	-a
8G\	.	16gg\LL	16gg\LL	8G\	Pa-	8B\	Pa-	8g\	Pa-	8dd\	Pa-
.	.	16gg\	16gg\	.	.	.	.	.	.	.	.
8E\J	6	16gg\	16gg\	8E\	-tri	8c\	-tri	8g\	-tri	8cc,<\	-tri
.	.	16gg\JJ	16gg\JJ	.	.	.	.	.	.	.	.
=34	=34	=34	=34	=34	=34	=34	=34	=34	=34	=34	=34
8F\L	.	16aa\LL	16aa\LL	8F\	glo-	8A/	glo-	8a\	glo-	8cc\	glo-
.	.	16cc\	16cc\	.	.	.	.	.	.	.	.
!	!	!	!	!	!	!LO:LB:g=original	!	!	!	!	!
8E\	6	16gg\	16gg\	16E\	-ri-	16c\	-ri-	16g\	-ri-	16cc\	-ri-
.	.	16cc\JJ	16cc\JJ	16E\	-a	16c,<\	-a	16g\	-a	16cc,<\	-a
!	!	!LO:LB:g=original	!	!	!	!	!	!LO:LB:g=original	!	!	!
8F\	.	16aa\LL	16aa\LL	8F\	fi-	8A/	fi-	8a\	Fi-	8cc\	fi-
.	.	16cc\	16cc\	.	.	.	.	.	.	.	.
8E\J	6	16gg\	16gg\	16E\	-li-	16c\	-li-	16g\	-li-	16cc\	-li-
.	.	16cc\JJ	16cc\JJ	16E\	-o	16c\	-o	16g\	-o	16cc\	-o
=35	=35	=35	=35	=35	=35	=35	=35	=35	=35	=35	=35
8F\L	.	16aa\LL	16aa\LL	8F\	et	8A/	et	8a\	et	8cc\	et
.	.	16ff\	16ff\	.	.	.	.	.	.	.	.
8E\	6	16gg\	16gg\	8E\	ſpi-	8c\	ſpi-	8g\	ſpi-	8cc\	ſpi-
.	.	16ee\JJ	16ee\JJ	.	.	.	.	.	.	.	.
8D\	6	16ff\LL	16ff\LL	8D/	-ri-	8B\	-ri-	8d\	-ri-	8ff\	-ri-
.	.	16dd\	16dd\	.	.	.	.	.	.	.	.
8C\J	.	16ee\	16ee\	16C/	-tu-	16c\	-tu-	16g\	-tu-	16ee\	-tu-
.	.	16cc\JJ	16cc\JJ	16C/	-i	16c\	-i	16g\	-i	16ee\	-i
!	!	!	!LO:LB:g=original	!LO:LB:g=original	!	!	!	!	!	!	!
=36	=36	=36	=36	=36	=36	=36	=36	=36	=36	=36	=36
!LO:TX:a:t=P:problem=mixed beam	!	!LO:TX:a:t=P:problem=mixed beam	!LO:TX:a:t=P:problem=mixed beam	!	!	!	!	!	!	!	!
8G\L	.	16dd\LL	16dd\LL	8G\	ſan-	8B\	ſan-	8g\	ſan-	8dd\	ſan-
.	.	16g/	16g/	.	.	.	.	.	.	.	.
8GG/J	.	16g/	16g/	8G\	-cto	8B\	-cto	8g\	-cto	8dd\	-cto
.	.	16g/JJ	16g/JJ	.	.	.	.	.	.	.	.
!	!	!LO:TX:a:t=P:problem=mixed beam	!LO:TX:a:t=P:problem=mixed beam	!	!	!	!	!	!	!	!
8rB	.	16g/LL	16g/LL	8rA	.	8r	.	8rg	.	8rdd	.
.	.	16ee\	16ee\	.	.	.	.	.	.	.	.
8c\	.	16ee\	16ee\	16c\	ſi-	16e\	ſi-	16g\	ſi-	16cc\	ſi-
.	.	16ee\JJ	16ee\JJ	16c\	-cut	16e\	-cut	16g\	-cut	16cc\	-cut
!LO:LB:g=original	!	!	!	!	!	!	!	!	!	!	!
=37	=37	=37	=37	=37	=37	=37	=37	=37	=37	=37	=37
8G\L	.	16dd\LL	16dd\LL	8G\	e-	8d\	e-	8g\	e-	8b\	e-
.	.	16gg\	16gg\	.	.	.	.	.	.	.	.
8E\	6	16gg\	16gg\	8E\	-rat	8e\	-rat	8g\	-rat	8cc,<\	-rat
.	.	16gg\JJ	16gg\JJ	.	.	.	.	.	.	.	.
8F\	.	16aa\LL	16aa\LL	8F\	in	8c\	in	8a\	in	8cc\	in
.	.	16ff\	16ff\	.	.	.	.	.	.	.	.
8E\J	.	16gg\	16gg\	8E\	prin-	8c\	prin-	8g\	prin-	8cc\	prin-
.	.	16ee\JJ	16ee\JJ	.	.	.	.	.	.	.	.
!	!	!	!	!	!	!	!	!	!	!LO:LB:g=original	!
=38	=38	=38	=38	=38	=38	=38	=38	=38	=38	=38	=38
8D/L	.	16ff\LL	16ff\LL	16D/	-ci-	16B\	-ci-	16d\	-ci-	16ff\	-ci-
.	.	16dd\	16dd\	16D/	-pi-	16B\	-pi-	16d\	-pi-	16ff\	-pi-
8C/J	.	16ee\	16ee\	16C/	-o	16c,<\	-o	16g\	-o	16ee,<\	-o
.	.	16cc\JJ	16cc\JJ	16C/	et	16c\	et	16g\	et	16ee\	et
!	!	!	!	!	!	!LO:LB:g=original	!	!	!	!	!
!LO:TX:a:t=P:problem=mixed beam	!	!	!	!	!	!	!	!	!	!	!
8G\L	.	16dd\LL	16dd\LL	8G\	nunc	8B\	nunc	8g\	nunc	8dd,<\	nunc
.	.	16g\	16g\JJ	.	.	.	.	.	.	.	.
8GG/J	.	16gg\	16gg\LL	8GG/	et	8B\	et	8g\	et	8dd\	et
.	.	16ff\JJ	16ff\JJ	.	.	.	.	.	.	.	.
=39	=39	=39	=39	=39	=39	=39	=39	=39	=39	=39	=39
!	!	!	!	!	!	!LO:TX:a:t=cla	!	!	!	!	!
4C/	.	4ee\	4ee\	8C/	ſem-	8c\	ſem-	8g\	ſem-	8ee\	ſem-
.	.	.	.	8C/	-per	8c\	-per	8g\	-per	8ee,<\	-per
!	!	!	!LO:TX:a:t=P:problem=mixed beam	!	!	!	!	!	!	!	!
4r	.	8cc\L	8cc\L	8E\	et	8c\	et	8g\	et	8ee\	Et
!	!	!LO:SIC:s=8g:v	!	!	!	!	!	!	!	!	!
.	.	8a\J	8g/J	8G\	in	8B\	in	8g\	in	8dd\	in
=40	=40	=40	=40	=40	=40	=40	=40	=40	=40	=40	=40
8c\L	.	8e/L	8e/L	8c\	ſae-	8c\	ſae-	8g\	ſae-	8ee\	ſae-
!	!	!	!	!	!	!	!	!LO:LB:g=original	!	!	!
8G\J	.	8g/J	8g/J	16G\	-cu-	16B\	-cu-	16g\	-cu-	16dd\	-cu-
.	.	.	.	16G\	-la	16B\	-la	16g\	-la	16dd\	-la
!	!	!	!	!LO:LB:g=original	!	!	!	!	!	!	!
!	!	!LO:TX:a:t=P:problem=mixed beam	!	!	!	!	!	!	!	!	!
4r	.	8cc\L	8cc\L	8E\	ſae-	8c\	ſae-	8g\	ſae-	8ee\	ſae-
.	.	8g/J	8g\J	8G\	-cu-	8B\	-cu-	8g\	-cu-	8dd\	-cu-
=41	=41	=41	=41	=41	=41	=41	=41	=41	=41	=41	=41
!LO:TX:a:t=P:problem=mixed beam	!	!	!	!	!	!	!	!	!	!	!
8c\L	.	8e/L	8e/L	8c\	-lo-	8c\	-lo-	8g\	-lo-	8ee\	-lo-
!LO:TX:b:t=Amen	!	!	!	!	!	!	!	!	!	!	!
8F\	6 5	8a/	8a/	8F\	-rum	8c\	-r(um)	8a\	-r(um)	8dd\	-r(um)
8G\	.	8d/	8d/	4G\	A-	4B\	A-	4g\	A-	4dd\	A-
!	!	!LO:SIC:s=8g:t=niejednoznaczne położenie nuty:v	!	!	!	!	!	!	!	!	!
8GG/J	.	8f/J	8g/J	.	.	.	.	.	.	.	.
=42	=42	=42	=42	=42	=42	=42	=42	=42	=42	=42	=42
4C/	.	4e/	4e/	4C/	-men	4c\	-men	4g\	-men	4cc\	-men
4r	.	4r	4rg	4r	.	4r	.	4re	.	4rb	.
==	==	==	==	==	==	==	==	==	==	==	==
*-	*-	*-	*-	*-	*-	*-	*-	*-	*-	*-	*-
!!!system-decoration: [(s1,s2,s3,s4)][(s5,s6,s7)]
!!!RDF**kern: < = below
!!!AIN: 1 alto 1 empty 1 organ 1 tenor 2 violn 1 vox
!!!ENC: Zofia Niedbalska
!!!END: 2020-11-04
!!!ENC: Andrzej Borzym
!!!END: 2020-06-05
